src/assets/foundation.svg

<svg fill="none" height="60" viewBox="0 0 60 60" width="60" xmlns="http://www.w3.org/2000/svg"><circle cx="30" cy="30" fill="#000" r="30"/><path clip-rule="evenodd" d="m36.0651 30.0001c0 3.5504-2.8781 6.4286-6.4285 6.4286s-6.4286-2.8782-6.4286-6.4286 2.8782-6.4286 6.4286-6.4286 6.4285 2.8782 6.4285 6.4286zm-18.7478-5.8163c.1178-.204.4124-.204.5302 0l6.5615 11.3649c.1178.204-.0295.4591-.2651.4591h-13.123c-.2356 0-.3829-.2551-.2651-.4591zm20.2014-.2297c-.3381 0-.6123.2741-.6123.6123v10.8673c0 .3382.2742.6123.6123.6123h10.8673c.3382 0 .6123-.2741.6123-.6123v-10.8673c0-.3382-.2741-.6123-.6123-.6123z" fill="#fff" fill-rule="evenodd"/><circle cx="30" cy="30" r="29.5" stroke="#fff" stroke-opacity=".1"/></svg>

<svg width="60" height="60" viewBox="0 0 60 60" fill="none" xmlns="http://www.w3.org/2000/svg">
<circle cx="30" cy="30" r="30" fill="black"/>
<path fill-rule="evenodd" clip-rule="evenodd" d="M36.0651 30.0001C36.0651 33.5505 33.187 36.4287 29.6366 36.4287C26.0862 36.4287 23.208 33.5505 23.208 30.0001C23.208 26.4497 26.0862 23.5715 29.6366 23.5715C33.187 23.5715 36.0651 26.4497 36.0651 30.0001ZM17.3173 24.1838C17.4351 23.9798 17.7297 23.9798 17.8475 24.1838L24.409 35.5487C24.5268 35.7527 24.3795 36.0078 24.1439 36.0078H11.0209C10.7853 36.0078 10.638 35.7527 10.7558 35.5487L17.3173 24.1838ZM37.5187 23.9541C37.1806 23.9541 36.9064 24.2282 36.9064 24.5664V35.4337C36.9064 35.7719 37.1806 36.046 37.5187 36.046H48.386C48.7242 36.046 48.9983 35.7719 48.9983 35.4337V24.5664C48.9983 24.2282 48.7242 23.9541 48.386 23.9541H37.5187Z" fill="white"/>
<circle cx="30" cy="30" r="29.5" stroke="white" stroke-opacity="0.1"/>
</svg>
